X: 432
T:The Mug of Brown Ale
O:Ireland
M:6/8
K:G
|:A/G/|\
"Am"EAA ABc|edB cBA|"G"BGG dGG|Bdc BAG|\
"Am"EAA ABc|"Am"edc "Em"g2e|"Am"edc "Em"Bcd|"Am"ecA A2:|\
f|\
"Em"gef g2a|"Em"gef "D7"g2c|"G"BGG dGG|Bdc BAG|\
"Em"gef g2a|"D7"gef "G"g2f|"C"edc "E7"Bcd|"Am"ecA A2f|\
"Em"gef g2a|"Em"gef "D7"g2c|"G"BGG dGG|Bdc BAG|\
"Am"EAA ABc|"Am"ede "Em"g2e|"Am"edc "E7"Bcd|"Am"ecA A2||
